X: 12491
T: Farewell To Erin
R: reel
M: 4/4
K: Dmajor
D2 ED AD (3FED|A3d def2|D3F ADFA|ABAF GFEF|
DEED AD (3FED|A2dc Bcde|effe dcBA|ABAF GFEF||
D2 ED AD (3FED|GAAd def2|d3B BAFA|ABAF GFEF|
DEED AD (3FED|A2dc Bcde|effe dcBA|ABAF GBec||
|:deed AFFB|AFBF AFFB|AddB ADFA|AGAB GABc|
dfed B2dB|BAFB ABde|effe dcBA|1 ABAF GBec:|2 ABAF GFEF||

